_assets/images/gallery/s02e10-03.svg

<svg xmlns="http://www.w3.org/2000/svg" width="500" height="550" viewBox="0 0 500 550"><defs><clipPath id="a"><path d="M-244.17 87.25c14.26-14.68 19.54-38 20.09-37.8 30.43 11 59.14 15.58 86.46 33.78-4 20-11.6 68.69-11 105.43-1.81 14.88 1.4 36 1.13 47.78-1.13 49.45 1 56.06.33 54.64-1.48 31.59.51 59.49.71 90.36 0 2.13-44.21 16.57-53.76-11.72-22.03-87.48-43.96-282.47-43.96-282.47z" fill="none"/></clipPath></defs><g clip-path="url(#a)" fill="none" stroke="#998f8f" stroke-linecap="round" stroke-linejoin="round"><path d="M-345.34 248.07l369.5-14.6m-364.3-12.24l364.73-14.41m-369.78 28.15l369.5-14.61m-364.15-25.72l364.73-14.41m-369.78 28.15l369.5-14.61m-364.15-25.68l364.73-14.42m-369.78 28.15l369.5-14.6m-364.15-25.72l364.73-14.42m-369.78 28.15l369.5-14.6m-370.55 200.03l369.5-14.61m-364.3-12.24L24.59 299.4m-369.78 28.15l369.5-14.6m-364.15-25.73l364.73-14.41m-369.78 28.15l369.5-14.6m-364.75 80.66L24.59 352.6m-369.78 28.15l369.5-14.6m-369.2-11.99l369.5-14.6m-364.15-78.89l364.73-14.41m-369.78 28.15l369.5-14.61m-363.85-145.13l364.73-14.41m-369.78 28.15l369.51-14.6m-364.16-25.73L26.09 73.67m-369.78 28.15l369.51-14.6m-364.3-13.05L26.25 59.76m-369.48 1.56L26.28 46.71"/></g><path d="M409.37 137.42c-8.82-19.22-14.51-42.62-30.45-57.21-26.39-17.17-87-32-87.25-31.52l-.19-.06c-3.67-1.54-5 3.72-7.87 5-17.36 10.42-39.46 7.3-58.61 4.87-7.1-1.26-13.56-4.12-18.56-9.67a3.16 3.16 0 00-2.72-.43c-1.27.46-2.54.91-3.82 1.35l-.92.32-3.73 1.25h-.05l-3.94 1.28-.8.25-3.8 1.2c-25.28 7.84-51.13 14.27-73.4 29.11-23.51 30.35-34.46 68.24-48.07 103.68-23.59 59.07-28.1 123-26.19 186-.35 11.19 3.49 22.28 5.72 33.31a6.7 6.7 0 001.28 3.24c6.31 5.75 3.46 14.66 5.49 22.42.3 1.47 1 1.81 2.41 1.47 12.51-3.2 26.22-2.34 38.6 1.18 3.13 1 3.17 1.13 3.74-2 1.44-8 10.36-41.31 11.86-49.29 1.19-8.37 4.89-16.87 4.38-25.31-1-3.31.12-6.42.37-9.58 1.26-11.18 6-24.61-5.15-32.56-5.69-6.88 9.44-5.5 11.81-16.18 1.35-2.86 2.87-5.63 4.29-8.46 2.21 47.16-2.55 94.72 3.6 141.53 1.41 10.78-1.88 18.06-.53 29.31.94 5.1 1.39 5.42 6.62 4.83 24.35-3.77 58.37-1.52 83-2.09 45-2.8 102.06-4.82 146.65 2.92 1.35.23 2.76.33 3.35-1.43 2.84-8.59.53-15.57 1.5-25.64.87-9 2.74-16.47 3.55-25.44q.3-61.72.62-123.46l.41-.08c.5 7.24 12.44 8.69 10.93 15.92-2.92 3.85-2.68 8-1.61 12.34 3.05 11.88 5.55 24 10.45 35.29 1.35 3.61 1.5 7.13-.51 10.66-5.47 9-1.69 19.56-.79 29.26 1.72 8.67-.95 10.27 5.33 17.64 3.31 5.84 3.1 21.25 11.44 21.4 12.54-3.91 25.32-1.08 37.8 1.58 2.67.5 2.68.27 3.08-2.33.83-5.36 1.69-10.73 2.91-16 .35-4.68 5.07-7.12 5.56-11.78 3.05-18.5 2.09-37.3 3.28-55.95 6.93-74.75-23.26-144.66-51.07-212.14z" fill="#262521" stroke="#262521" stroke-linecap="round" stroke-linejoin="round" stroke-width="3"/><path d="M372.4 234.25c-15-53.75-54.7-102.31-80.54-150.71-13.41 32.32-67 38.47-86.24 4.38-13.72 24.22-29.14 47.38-41.47 72.57-22.75 40.72-40.68 88.88-40.34 130.51 2.21 47.16-6.5 105.22 4.55 151.13-4 1.55 230.16 7 239.61-1.7 7.29-49.19 2.51-99.28 4.17-148.9l.38-.08c-.32-2.77-2.69-19.02-.12-57.2z" fill="#33322e"/><path d="M372.14 291.56l.38-.08c-1.17-69.2 1.94-73.26-43.74-146.69 28.32 78.74 31 163.44 30.85 246.25-8.41 39-70 44.15-102.84 47-15.68 1-31.39.38-47.05 1.75-34.46 2.66-68.53 8.51-86.05-28.45a201.34 201.34 0 004.67 30.86c-4 1.55 230.16 7 239.61-1.7 7.29-49.23 2.51-99.32 4.17-148.94zM206 90.35c1 1.91 2.11 3.8 3.15 5.71a51.06 51.06 0 008.67 11.52c6 6 13.46 11.46 21.81 13.64 7.27 1.9 15.18.67 22.38-1.33 15.59-4.33 28.94-26.13 30-36.16l-.1-.19c-13.41 32.32-67 38.47-86.24 4.38l-.48.84c.22.54.51 1.07.81 1.59z" fill="#fff" opacity=".2"/><path d="M204.41 48.78s4 48.55 43.68 46.73 42.84-45.41 42.84-45.41" fill="none" stroke="#636363" stroke-linecap="round" stroke-linejoin="round"/><path d="M121.91 258c0 3.17 1.9 33.06 1.9 33.06m247.52-102.4s1.59 62.14.81 102.9" fill="none" stroke="#262521" stroke-linecap="round" stroke-linejoin="round" stroke-width="3"/><path d="M126.88 461.87c-1.35-11.25 1.94-18.53.53-29.31-6.15-46.81-1.39-94.37-3.6-141.53m248.33.53q-.27 61.72-.62 123.46c-.81 9-2.68 16.41-3.55 25.44" fill="none" stroke="#262521" stroke-linecap="round" stroke-linejoin="round" stroke-width="3"/></svg>

<svg xmlns="http://www.w3.org/2000/svg" width="500" height="550" viewBox="0 0 500 550"><defs><clipPath id="a"><path d="M-244.17 87.25c14.26-14.68 19.54-38 20.09-37.8 30.43 11 59.14 15.58 86.46 33.78-4 20-11.6 68.69-11 105.43-1.81 14.88 1.4 36 1.13 47.78-1.13 49.45 1 56.06.33 54.64-1.48 31.59.51 59.49.71 90.36 0 2.13-44.21 16.57-53.76-11.72-22.03-87.48-43.96-282.47-43.96-282.47z" fill="none"/></clipPath></defs><g clip-path="url(#a)" fill="none" stroke="#998f8f" stroke-linecap="round" stroke-linejoin="round"><path d="M-345.34 248.07l369.5-14.6M-340.14 221.23l364.73-14.41M-345.19 234.97l369.5-14.61M-339.84 194.64l364.73-14.41M-344.89 208.38l369.5-14.61M-339.54 168.09l364.73-14.42M-344.59 181.82l369.5-14.6M-339.24 141.5l364.73-14.42M-344.29 155.23l369.5-14.6M-345.34 340.66l369.5-14.61M-340.14 313.81L24.59 299.4M-345.19 327.55l369.5-14.6M-339.84 287.22l364.73-14.41M-344.89 300.96l369.5-14.6M-340.14 367.02L24.59 352.6M-345.19 380.75l369.5-14.6M-344.89 354.16l369.5-14.6M-339.54 260.67l364.73-14.41M-344.59 274.41l369.5-14.61M-338.94 114.67l364.73-14.41M-343.99 128.41l369.51-14.6M-338.64 88.08L26.09 73.67M-343.69 101.82l369.51-14.6M-338.48 74.17L26.25 59.76M-343.23 61.32L26.28 46.71"/></g><path d="M409.37 137.42c-8.82-19.22-14.51-42.62-30.45-57.21-26.39-17.17-87-32-87.25-31.52l-.19-.06c-3.67-1.54-5 3.72-7.87 5-17.36 10.42-39.46 7.3-58.61 4.87-7.1-1.26-13.56-4.12-18.56-9.67a3.16 3.16 0 00-2.72-.43c-1.27.46-2.54.91-3.82 1.35l-.92.32-3.73 1.25h-.05l-3.94 1.28-.8.25-3.8 1.2c-25.28 7.84-51.13 14.27-73.4 29.11-23.51 30.35-34.46 68.24-48.07 103.68-23.59 59.07-28.1 123-26.19 186-.35 11.19 3.49 22.28 5.72 33.31a6.7 6.7 0 001.28 3.24c6.31 5.75 3.46 14.66 5.49 22.42.3 1.47 1 1.81 2.41 1.47 12.51-3.2 26.22-2.34 38.6 1.18 3.13 1 3.17 1.13 3.74-2 1.44-8 10.36-41.31 11.86-49.29 1.19-8.37 4.89-16.87 4.38-25.31-1-3.31.12-6.42.37-9.58 1.26-11.18 6-24.61-5.15-32.56-5.69-6.88 9.44-5.5 11.81-16.18 1.35-2.86 2.87-5.63 4.29-8.46 2.21 47.16-2.55 94.72 3.6 141.53 1.41 10.78-1.88 18.06-.53 29.31.94 5.1 1.39 5.42 6.62 4.83 24.35-3.77 58.37-1.52 83-2.09 45-2.8 102.06-4.82 146.65 2.92 1.35.23 2.76.33 3.35-1.43 2.84-8.59.53-15.57 1.5-25.64.87-9 2.74-16.47 3.55-25.44q.3-61.72.62-123.46l.41-.08c.5 7.24 12.44 8.69 10.93 15.92-2.92 3.85-2.68 8-1.61 12.34 3.05 11.88 5.55 24 10.45 35.29 1.35 3.61 1.5 7.13-.51 10.66-5.47 9-1.69 19.56-.79 29.26 1.72 8.67-.95 10.27 5.33 17.64 3.31 5.84 3.1 21.25 11.44 21.4 12.54-3.91 25.32-1.08 37.8 1.58 2.67.5 2.68.27 3.08-2.33.83-5.36 1.69-10.73 2.91-16 .35-4.68 5.07-7.12 5.56-11.78 3.05-18.5 2.09-37.3 3.28-55.95 6.93-74.75-23.26-144.66-51.07-212.14z" fill="#262521" stroke="#262521" stroke-linecap="round" stroke-linejoin="round" stroke-width="3"/><path d="M372.4 234.25c-15-53.75-54.7-102.31-80.54-150.71-13.41 32.32-67 38.47-86.24 4.38-13.72 24.22-29.14 47.38-41.47 72.57-22.75 40.72-40.68 88.88-40.34 130.51 2.21 47.16-6.5 105.22 4.55 151.13-4 1.55 230.16 7 239.61-1.7 7.29-49.19 2.51-99.28 4.17-148.9l.38-.08c-.32-2.77-2.69-19.02-.12-57.2z" fill="#33322e"/><path d="M372.14 291.56l.38-.08c-1.17-69.2 1.94-73.26-43.74-146.69 28.32 78.74 31 163.44 30.85 246.25-8.41 39-70 44.15-102.84 47-15.68 1-31.39.38-47.05 1.75-34.46 2.66-68.53 8.51-86.05-28.45a201.34 201.34 0 004.67 30.86c-4 1.55 230.16 7 239.61-1.7 7.29-49.23 2.51-99.32 4.17-148.94zM206 90.35c1 1.91 2.11 3.8 3.15 5.71a51.06 51.06 0 008.67 11.52c6 6 13.46 11.46 21.81 13.64 7.27 1.9 15.18.67 22.38-1.33 15.59-4.33 28.94-26.13 30-36.16l-.1-.19c-13.41 32.32-67 38.47-86.24 4.38l-.48.84c.22.54.51 1.07.81 1.59z" fill="#fff" opacity=".2"/><path d="M204.41 48.78s4 48.55 43.68 46.73 42.84-45.41 42.84-45.41" fill="none" stroke="#636363" stroke-linecap="round" stroke-linejoin="round"/><path d="M121.91 258c0 3.17 1.9 33.06 1.9 33.06M371.33 188.66s1.59 62.14.81 102.9" fill="none" stroke="#262521" stroke-linecap="round" stroke-linejoin="round" stroke-width="3"/><path d="M126.88 461.87c-1.35-11.25 1.94-18.53.53-29.31-6.15-46.81-1.39-94.37-3.6-141.53M372.14 291.56q-.27 61.72-.62 123.46c-.81 9-2.68 16.41-3.55 25.44" fill="none" stroke="#262521" stroke-linecap="round" stroke-linejoin="round" stroke-width="3"/></svg>
